!!!!SEGMENT: Ser3013-Changeons_propos.krn
!!!id: Ser3013
!!!AGN: Chanson
!!!voices: 3
!!!COM: Claudin de Sermisy
!!!OTL: Changeons propos
**kern	**kern	**kern
*part3	*part2	*part1
*staff3	*staff2	*staff1
*I"Bassus	*I"Altus	*I"Superius
*I'B	*I'A	*I'S
*clefF4	*clefG2	*clefG2
*k[b-]	*k[b-]	*k[b-]
*F:	*F:	*F:
*M2/1	*M2/1	*M2/1
*met(C|)	*met(C|)	*met(C|)
=1	=1	=1
2r	1r	0r
2c	.	.
2c	2r	.
2c	2g	.
=2	=2	=2
2B-y	2g	1r
2c	2g	.
2.d	[1f	2r
.	.	2dd
4c	.	.
=3	=3	=3
2B-y	2f]	2dd
2B-y	2g	2dd
[1A	2.a	[1cc
.	4g	.
=4	=4	=4
1A]	2f	2cc]
.	2e	2cc
1r	2f	2.dd
.	2g	.
.	.	4cc
=5	=5	=5
2r	2d	2b-y
2G	1g	2b-y
2d	.	1a
2d	2f#i	.
=6	=6	=6
2B-y	1g	2r
2c	.	2g
2B-y	1r	2dd
[2G	.	2dd
=7	=7	=7
2G]	0r	2b-y
2A	.	2cc
2B-y	.	2b-y
4c	.	2g
4B-y	.	.
=8	=8	=8
4A	2r	2a
4G	.	.
1G	2g	2.b-y
.	2dd	.
.	.	4a
2F#i	2dd	[2a
=9	=9	=9
2G	1b-y	2a]
2B-y	.	1g
1A	2r	.
.	2cc	2f#i
=10	=10	=10
1G	2b-y	2g
.	2g	2b-y
2r	2a	2cc
2G	[2b-y	[2dd
=11	=11	=11
2B-y	4b-]	2dd]
.	4a	.
2c	1g	4cc
.	.	4b-y
1d	.	1a
.	2f#i	.
=12	=12	=12
2G	1g	0g
2c	.	.
2c	2r	.
2c	2g	.
=13	=13	=13
2B-y	2g	1r
2c	2g	.
2.d	[1f	2r
.	.	2dd
4c	.	.
=14	=14	=14
2B-y	2f]	2dd
2B-y	2g	2dd
[1A	2.a	[1cc
.	4g	.
=15	=15	=15
1A]	2f	2cc]
.	2e	2cc
1r	2f	2.dd
.	2g	.
.	.	4cc
=16	=16	=16
2r	2d	2b-y
2G	1g	2b-y
2d	.	1a
2d	2f#i	.
=17	=17	=17
2B-y	1g	2r
2c	.	2g
2B-y	1r	2dd
[2G	.	2dd
=18	=18	=18
2G]	0r	2b-y
2A	.	2cc
2B-y	.	2b-y
4c	.	2g
4B-y	.	.
=19	=19	=19
4A	2r	2a
4G	.	.
1G	2g	2.b-y
.	2dd	.
.	.	4a
2F#i	2dd	[2a
=20	=20	=20
2G	1b-y	2a]
2B-y	.	1g
1A	2r	.
.	2cc	2f#i
=21	=21	=21
1G	2b-y	2g
.	2g	2b-y
2r	2a	2cc
2G	[2b-y	[2dd
=22	=22	=22
2B-y	4b-]	2dd]
.	4a	.
2c	1g	4cc
.	.	4b-y
1d	.	1a
.	2f#i	.
=23	=23	=23
0G	1g	2g
.	.	2dd
.	2r	2dd
.	2dd	2dd
=24	=24	=24
2r	2dd	1b-y
2G	2dd	.
2G	1b-y	2g
2G	.	2dd
=25	=25	=25
1c	1g	2ee
.	.	1gg
1G	2r	.
.	2dd	2gg
=26	=26	=26
2r	2dd	1.ff
2B-y	2dd	.
2B-y	1b-y	.
2B-y	.	4ee
.	.	4dd
=27	=27	=27
2c	2a	2ee
2B-y	2.b-y	2.dd
4G	.	.
4A	4a	4cc
4B-y	2g	2b-y
4c	.	.
=28	=28	=28
1d	0f	2a
.	.	2b-y
2r	.	2cc
2B-y	.	2dd
=29	=29	=29
2c	2r	2ee
2d	2f	1dd
1e-i	2.g	.
.	.	2cc
.	4a	.
=30	=30	=30
2d	1b-y	2dd
2B-y	.	2dd
2c	2a	2ee
2d	2a	2ff
=31	=31	=31
2G	2b-y	2gg
2c	2cc	2ee
2B-y	2dd	2.ff
2F	[2cc	.
.	.	4ee
=32	=32	=32
1.G	2cc]	2dd
.	1b-y	4cc
.	.	4b-y
.	.	1cc
2F	2a	.
=33	=33	=33
2r	1b-y	2b-y
2G	.	2dd
2A	1r	2cc
[2c	.	2ee
=34	=34	=34
2c]	2r	1dd
2B-y	2b-y	.
1c	2a	1r
.	2g	.
=35	=35	=35
2r	4f	2dd
.	4d	.
2A	4e	2cc
.	4f	.
2G	4g	2ee
.	4f	.
2B-y	4e	[2dd
.	4d	.
=36	=36	=36
1A	1e	2dd]
.	.	2cc
2.D	2.f	2dd
.	.	[2ff
4E	4g	.
=37	=37	=37
2F	2a	4ff]
.	.	4ee
1G	2.b-y	1dd
.	4a	.
2A	[2a	[2cc
=38	=38	=38
2F	2a]	2cc]
2G	1g	2b-y
2D	.	4a
.	.	4g
2d	2f	4a
.	.	4b-y
=39	=39	=39
2c	4e	4cc
.	4d	4b-y
2e	1g	4a
.	.	4g
1d	.	1a
.	2f#i	.
=40	=40	=40
2r	1g	2g
2G	.	2dd
2A	1r	2cc
[2c	.	2ee
=41	=41	=41
2c]	2r	1dd
2B-y	2b-y	.
1c	2a	1r
.	2g	.
=42	=42	=42
2r	4f	2dd
.	4d	.
2A	4e	2cc
.	4f	.
2G	4g	2ee
.	4f	.
2B-y	4e	[2dd
.	4d	.
=43	=43	=43
1A	1e	2dd]
.	.	2cc#i
2.D	2.f	2dd
.	.	[2ff
4E	4g	.
=44	=44	=44
2F	2a	4ff]
.	.	4ee
1G	2.b-y	1dd
.	4a	.
2A	[2a	2cc
=45	=45	=45
2F	2a]	2.dd
2G	1g	.
.	.	8ccL
.	.	8b-yJ
1D	.	4a
.	.	4g
.	2f#i	2a
=46	=46	=46
00Gl	00gl	00gl
==	==	==
*-	*-	*-
!!!system-decoration: [*]
!!!RDF**kern: i = editorial accidental
!!!RDF**kern: l = terminal long
!!!ENC: Benjamin Ory
!!!END: 2024/12/22
!!!EED: Benjamin Ory
!!!EEV: 2025/02/17
!!!YEC: Copyright 2025 Benjamin Ory, All Rights Reserved
!!!ONB: Translated from MusicXML on 2025/02/17